storage/app/icons/phosphoricons/duotone/robot-duotone.svg

<svg xmlns="http://www.w3.org/2000/svg" fill="currentColor" viewBox="0 0 256 256"><path d="M200 56H56a24 24 0 0 0-24 24v112a24 24 0 0 0 24 24h144a24 24 0 0 0 24-24V80a24 24 0 0 0-24-24m-36 128H92a20 20 0 0 1 0-40h72a20 20 0 0 1 0 40" opacity=".2"/><path d="M200 48h-64V16a8 8 0 0 0-16 0v32H56a32 32 0 0 0-32 32v112a32 32 0 0 0 32 32h144a32 32 0 0 0 32-32V80a32 32 0 0 0-32-32m16 144a16 16 0 0 1-16 16H56a16 16 0 0 1-16-16V80a16 16 0 0 1 16-16h144a16 16 0 0 1 16 16ZM72 108a12 12 0 1 1 12 12 12 12 0 0 1-12-12m88 0a12 12 0 1 1 12 12 12 12 0 0 1-12-12m4 28H92a28 28 0 0 0 0 56h72a28 28 0 0 0 0-56m-24 16v24h-24v-24Zm-60 12a12 12 0 0 1 12-12h8v24h-8a12 12 0 0 1-12-12m84 12h-8v-24h8a12 12 0 0 1 0 24"/></svg>

<svg xmlns="http://www.w3.org/2000/svg" viewBox="0 0 256 256" fill="currentColor"><path d="M200,56H56A24,24,0,0,0,32,80V192a24,24,0,0,0,24,24H200a24,24,0,0,0,24-24V80A24,24,0,0,0,200,56ZM164,184H92a20,20,0,0,1,0-40h72a20,20,0,0,1,0,40Z" opacity="0.2"/><path d="M200,48H136V16a8,8,0,0,0-16,0V48H56A32,32,0,0,0,24,80V192a32,32,0,0,0,32,32H200a32,32,0,0,0,32-32V80A32,32,0,0,0,200,48Zm16,144a16,16,0,0,1-16,16H56a16,16,0,0,1-16-16V80A16,16,0,0,1,56,64H200a16,16,0,0,1,16,16ZM72,108a12,12,0,1,1,12,12A12,12,0,0,1,72,108Zm88,0a12,12,0,1,1,12,12A12,12,0,0,1,160,108Zm4,28H92a28,28,0,0,0,0,56h72a28,28,0,0,0,0-56Zm-24,16v24H116V152ZM80,164a12,12,0,0,1,12-12h8v24H92A12,12,0,0,1,80,164Zm84,12h-8V152h8a12,12,0,0,1,0,24Z"/></svg>
